!!!!SEGMENT: pl-sa--591-a-ix-71--005_anonim--godzinki-najswietszej-panny.krn
!!!cenid: 18xx:662
!!!COM: Anonim
!!!COM-rismID: pe30004985
!!!CDT:
!!!CNT:
!!!OTL: Godzinki najświętszej Panny
!!!PDT:
!!!AGN: Secular
!!!SMS-siglum: PL-SA
!!!SMS-shelfmark: 591/A IX 71
!!!SMS-shelfwork: 005 W
!!!SMS-variant:
!!!SMS-altvar:
!!!NIFC-rismSourceID: 1001113068
!!!NIFC-rismChildID: 1001113068
!!!NIFC-islandoraID: none
!!!URL-pdf-islandora:
!!!URL-scan: https://bc.bdsandomierz.pl/dlibra/publication/1400/edition/1368/content @EN{Scan in the Sandomierz Diocese Digital Library} @PL{Skany w portalu Cyfrowa Biblioteka Diecezjalna w Sandomierzu}
!!!ONB-nifc: Str. 3
!!!AIN: 1 piano
!!!key:
**kern	**text	**kern	**text
*part1	*part1	*part1	*part1
*staff2	*staff2	*staff1	*staff1
*Ipiano	*	*Iempty	*
*I"Piano	*	*	*
*I'P-no	*	*	*
*clefF4	*	*clefG2	*
*k[f#]	*	*k[f#]	*
*f#:	*	*f#:	*
*M3/4	*	*M3/4	*
=1	=1	=1	=1
*	*	*Xtuplet	*
!	!	!LO:SIC:o:s:=:v:wszystkie metra w utworze ukryte	!
4GG/	.	20g/LL	Za-
.	.	20a/	.
.	.	20b/	-cznij-
.	.	20cc/	-cie
.	.	20dd/JJ	.
4G\	.	16cc/LL	War-
.	.	16b/	.
.	.	16a/	-gi
.	.	16g/JJ	.
4G\	.	16b/LL 16g/	na-
.	.	16a/J 16f#/	.
.	.	8b/J 8g/	-sze
=2-	=2-	=2	=2
*	*	*M6/4	*
4ryy	.	8b/L 8g/	.
.	.	8cc/J 8a/	.
4G/ 4GG/	.	4dd/ 4b/	.
4F#\ 4D\	.	4cc/ 4a/	.
4G/ 4GG/	.	4b/ 4g/	i
4ryy	.	4dd/ 4b/	dru-
!!LO:SIC:o:s:=:v:4\right	!	!
!	!	!LO:N:vis=4	!
8F#\ 8D\	.	8cc/L 8a/	-gie
!	!	!LO:N:vis=4	!
8G/ 8GG/	.	8b/J 8g/	.
=3	=3	=3	=3
*M9/8	*	*M9/8	*
!LO:N:vis=4	!	!	!
8A\ 8F#\ 8D\	.	16a/LL 16f#/	.
.	.	16a/JJ 16f#/	stro-
!LO:N:vis=4	!	!	!
8G/ 8GG/	.	16b\LL 16g\	-fy
.	.	16b\JJ 16g\	.
4F#\ 4D\	.	8cc\L 8a\ 8f#\	.
.	.	8b\ 8g\ 8e\	.
4G/ 4GG/	.	8a\ 8f#\	.
.	.	8b\J 8g\	.
4A\ 4F#\ 4D\	.	4a\ 4f#\ 4d\	tak-
8ryy	.	24a\LL	-że
.	.	24f#\	.
.	.	24d\JJ	mi
=4	=4	=4	=4
4A\ 4F#\ 4D\	.	20dd\LL	gra-
.	.	20cc\	-ja
.	.	20b\	.
.	.	20a\	.
.	.	20g\JJ	.
4ryy	.	24f#\LL	.
.	.	24g\	.
.	.	24a\JJ	.
.	.	8d\L	.
4ryy	.	8e\	.
.	.	8f#\J	.
4G/ 4GG/	.	4g/	.
!!LO:LB:g=original
=5||	=5||	=5||	=5||
4ryy	.	24e/LL	Za-
.	.	24f#X/	.
.	.	24g/JJ	.
.	.	4a/ 4f#X/	-wi-
8ryy	.	.	.
4G/ 4GG/	.	4b/ 4g/	-taj
4ryy	.	8a/L 8f#/	.
.	.	8g/J 8e/	.
=6	=6	=6	=6
4F#X/ 4D#X/ 4BB/	.	4f#X/ 4d#X/	Pa-
4E/	.	4e/	-ni
*clefG2	*	*	*
=7	=7	=7	=7
4ryy	.	8b\L	Świa-
.	.	8cc#X\	-ta
!LO:CL:ed	!	!	!
*clefF4	*	*	*
!	!	!LO:SIC:o:s:=:v:niewidoczny klucz basowy	!
8ryy	.	8dd\J	.
!LO:SIC:o:s:=:v:4\right	!	!LO:SIC:o:s:=:v:4\right	!
4e\ 4c#X\	.	4ee\ 4cc#X\	.
!	!	!LO:SIC:o:s:=:v:8\right	!
8d\ 8B\	.	8dd\L 8b\	.
!	!	!LO:SIC:o:s:=:v:8\right	!
8c#\ 8A#X\	.	8cc#\J 8a#X\	.
!	!	!LO:SIC:o:s:=:v:4\right	!
4B\ 4F#X\ 4D#X\ 4BB\	.	4b/	.
=8	=8	=8	=8
4ryy	.	16g\LL	.
.	.	16a\	.
.	.	16b\	.
.	.	16cc\JJ	.
!	!	!LO:TX:b:t=z E major na Wielkanoc	!
4G\ 4GG\	.	4dd\ 4b\	.
4A\ 4AA\	.	4cc\ 4a\	.
4G\ 4GG\	.	4b\ 4g\	.
4ryy	.	16g\LL	.
.	.	16a\	.
.	.	16b\	.
.	.	16cc\JJ	.
2G\ 2GG\	.	8dd\L 8b\	.
.	.	8cc\J 8a\	.
.	.	4b\ 4g\	.
=9	=9	=9	=9
!LO:N:vis=4	!	!	!
8A\ 8F#X\ 8D\	.	16a/LL 16f#X/	.
.	.	16a/JJ 16f#/	.
4G\ 4GG\	.	4b/ 4g/	.
4F#\ 4D\	.	4a/ 4f#/	.
4G\ 4E\	.	4g/ 4e/	.
4F#\ 4D#X\ 4BB\	.	4a/ 4f#X/	.
4E\ 4BB\ 4EE\	.	4e/	.
!!LO:LB:g=original
=10||	=10||	=10||	=10||
4G#X\ 4E\	.	4g#X/ 4e/	Pa-
4F#\ 4D#X\	.	4f#X/ 4d#X/	-nie
4G#\ 4E\	.	4g#/ 4e/	wy-
4F#\ 4D#\ 4BB\	.	4f#X/ 4d#X/ 4B/	-słu-
8ryy	.	24f#/LL	-chaj
.	.	24d#/	.
.	.	24B/JJ	.
!	!	!	!LO:SIC:o:s:=:v:20\right
2F#\ 2D#\ 2BB\	.	20b\LL	Mo-
.	.	20a\	.
.	.	20g#\	-dli-
.	.	20f#X\	.
.	.	20e\JJ	-twy
.	.	24d#X/LL	na-
.	.	24e/	.
.	.	24f#X/JJ	-sze,
.	.	24B/LL	i
.	.	24c#X/	inne
.	.	24d#X/JJ	.
=11	=11	=11	=11
!	!	!LO:N:vis=4	!
1E\	.	1e/	.
=12||	=12||	=12||	=12||
1.ryy	.	12g#X\L	.
.	.	12b\	.
.	.	12ee\J	O-
.	.	8a\L	-sta-
.	.	8cc#X\J	-tnie
.	.	8b\L	.
.	.	8g#X\J	A-
.	.	8a\L	-men
.	.	8f#X\J	.
.	.	12f#X\L	.
.	.	12dd#X\	.
.	.	12bb\J	.
.	.	4c/	.
=13-	=13	=13-	=13
4ryy	.	20A</LL	.
.	.	20B</	.
.	.	20c#X</	.
.	.	20d/	.
.	.	20e/JJ	.
4C#X/ 4AA/	A-	4c#X/ 4F#/	.
4ryy	.	16e/LL	.
.	.	16d/	.
.	.	16c#X/	.
.	.	16B/JJ	.
4BB/ 4GG#X/	-men	4d/ 4G#X/	.
=14||	=14||	=14||	=14||
*	*	*k[e-b-a-]	*
!	!	!LO:SIC:o:s:=:v:niewidoczne bemole	!
!	!	!LO:TX:a:t=f minor	!
!	!	!LO:SIC:o:s:=:v:kolejność bemoli	!
1..ryy	.	12ff\L	.
.	.	12cc\	.
.	.	12a-\J	.
.	.	8cc#X\L	.
.	.	8b-X\J	.
.	.	8ccn\L	.
.	.	8a-X\J	.
.	.	8b-X\L	.
.	.	8g\J	.
.	.	8a-X\L	.
.	.	8f\J	.
.	.	12g/L	.
.	.	12e-/	.
.	.	12c/J	.
.	.	4f/	.
==-	==	==-	==
*-	*-	*-	*-
!!!system-decoration: s1,s2
!!!RDF**kern: > = above
!!!RDF**kern: < = below
!!!EED: Leszek Kubiak
!!!EEV: 2020-12-14
!!!ENC: Marcin Jachim
!!!END: 2020-06-21
!!!YEC: Copyright 2022 Narodowy Instytut Fryderyka Chopina (https://polishscores.org)
!!!YEM: License CC-BY-4.0 (https://creativecommons.org/licenses/by/4.0)
